static/img/kroki/ff876325a2ed020d48f28ec7805d23b6.svg

<?xml version="1.0" encoding="us-ascii" standalone="no"?><svg xmlns="http://www.w3.org/2000/svg" xmlns:xlink="http://www.w3.org/1999/xlink" contentStyleType="text/css" height="152px" preserveAspectRatio="none" style="width:266px;height:152px;" version="1.1" viewBox="0 0 266 152" width="266px" zoomAndPan="magnify"><defs/><g><!--class kubernetes_cluster--><g id="elem_kubernetes_cluster"><rect codeLine="23" fill="#3D176E" height="39.7891" id="kubernetes_cluster" rx="2.5" ry="2.5" style="stroke:#000D19;stroke-width:0.5;" width="201" x="32.5" y="7"/><ellipse cx="47.5" cy="26.8945" fill="#ADD1B2" rx="11" ry="11" style="stroke:#181818;stroke-width:1.0;"/><path d="M50.4688,32.5352 Q49.8906,32.832 49.25,32.9727 Q48.6094,33.1289 47.9063,33.1289 Q45.4063,33.1289 44.0781,31.4883 Q42.7656,29.832 42.7656,26.707 Q42.7656,23.582 44.0781,21.9258 Q45.4063,20.2695 47.9063,20.2695 Q48.6094,20.2695 49.25,20.4258 Q49.9063,20.582 50.4688,20.8789 L50.4688,23.5977 Q49.8438,23.0195 49.25,22.7539 Q48.6563,22.4727 48.0313,22.4727 Q46.6875,22.4727 46,23.5508 Q45.3125,24.6133 45.3125,26.707 Q45.3125,28.8008 46,29.8789 Q46.6875,30.9414 48.0313,30.9414 Q48.6563,30.9414 49.25,30.6758 Q49.8438,30.3945 50.4688,29.8164 L50.4688,32.5352 Z " fill="#000000"/><text fill="#D9B8FF" font-family="Helvetica" font-size="17" lengthAdjust="spacing" textLength="159" x="66.5" y="32.7798">kubernetes_cluster</text></g><!--class kubernetes_ingress_class--><g id="elem_kubernetes_ingress_class"><rect codeLine="26" fill="#3D176E" height="39.7891" id="kubernetes_ingress_class" rx="2.5" ry="2.5" style="stroke:#000D19;stroke-width:0.5;" width="252" x="7" y="106.79"/><ellipse cx="22" cy="126.6845" fill="#ADD1B2" rx="11" ry="11" style="stroke:#181818;stroke-width:1.0;"/><path d="M24.9688,132.3252 Q24.3906,132.622 23.75,132.7627 Q23.1094,132.9189 22.4063,132.9189 Q19.9063,132.9189 18.5781,131.2783 Q17.2656,129.622 17.2656,126.497 Q17.2656,123.372 18.5781,121.7158 Q19.9063,120.0595 22.4063,120.0595 Q23.1094,120.0595 23.75,120.2158 Q24.4063,120.372 24.9688,120.6689 L24.9688,123.3877 Q24.3438,122.8095 23.75,122.5439 Q23.1563,122.2627 22.5313,122.2627 Q21.1875,122.2627 20.5,123.3408 Q19.8125,124.4033 19.8125,126.497 Q19.8125,128.5908 20.5,129.6689 Q21.1875,130.7314 22.5313,130.7314 Q23.1563,130.7314 23.75,130.4658 Q24.3438,130.1845 24.9688,129.6064 L24.9688,132.3252 Z " fill="#000000"/><text fill="#D9B8FF" font-family="Helvetica" font-size="17" lengthAdjust="spacing" textLength="210" x="41" y="132.5698">kubernetes_ingress_class</text></g><!--link kubernetes_cluster to kubernetes_ingress_class--><g id="link_kubernetes_cluster_kubernetes_ingress_class"><path codeLine="29" d="M133,47.22 C133,64.36 133,83.27 133,100.41 " fill="none" id="kubernetes_cluster-to-kubernetes_ingress_class" style="stroke:#1A83AF;stroke-width:2.0;"/><polygon fill="#1A83AF" points="133,106.41,137,97.41,133,101.41,129,97.41,133,106.41" style="stroke:#1A83AF;stroke-width:2.0;"/></g><!--SRC=[XP91QuD048Nl_ee5pm6jjEgbO8JGNa9fUYibRDpPkAYxChisfAN_lHhRidLZSfttpSnxmvI20O6cDKVIGBC3r9wkX6mfqePaYEgGgreXyJcdF8gduaf9SnLOqmR80zJlO4H1fyHBAOfAWjRanfAMjAZsg3h9nl46gTIz1D9OL5vJhJDZKEmw0vOPbkuIpgVaTAWViJ2-0mTJo01_a208M9XEaQkhBkR-8pRY0qXe7ssj33WsdHKdwgBBWR1CEa5_zLcFJvGn8VVargezZvvG0lwhRqhAr66WEQsrlKORG53cs4Bkf88qOJm-2p_EmLund8vKNV-f4WpeRL5tGn_vzBmlL-qzOVzQsr4uCMTw5wz-c2LHjdfRtCzsUzy0]--></g></svg>

<svg xmlns="http://www.w3.org/2000/svg" width="266" height="152" viewBox="0 0 266 152"><rect width="201" height="39.789" x="32.5" y="7" fill="#3D176E" rx="2.5" ry="2.5" style="stroke:#000d19;stroke-width:.5"/><circle cx="47.5" cy="26.895" r="11" fill="#ADD1B2" style="stroke:#181818;stroke-width:1"/><path d="M50.469 32.535q-.578.297-1.219.438-.64.156-1.344.156-2.5 0-3.828-1.64-1.312-1.657-1.312-4.782t1.312-4.781q1.328-1.656 3.828-1.656.703 0 1.344.156.656.156 1.219.453v2.719q-.625-.578-1.219-.844-.594-.281-1.219-.281-1.343 0-2.031 1.078-.687 1.062-.687 3.156T46 29.879q.688 1.062 2.031 1.062.625 0 1.219-.265.594-.281 1.219-.86z"/><text x="66.5" y="32.78" fill="#D9B8FF" font-family="Helvetica" font-size="17" textLength="159">kubernetes_cluster</text><rect width="252" height="39.789" x="7" y="106.79" fill="#3D176E" rx="2.5" ry="2.5" style="stroke:#000d19;stroke-width:.5"/><circle cx="22" cy="126.684" r="11" fill="#ADD1B2" style="stroke:#181818;stroke-width:1"/><path d="M24.969 132.325q-.578.297-1.219.438-.64.156-1.344.156-2.5 0-3.828-1.64-1.312-1.657-1.312-4.782t1.312-4.781q1.328-1.656 3.828-1.656.703 0 1.344.156.656.156 1.219.453v2.719q-.625-.579-1.219-.844-.594-.281-1.219-.281-1.343 0-2.031 1.078-.687 1.062-.687 3.156t.687 3.172q.688 1.062 2.031 1.062.625 0 1.219-.265.594-.281 1.219-.86z"/><text x="41" y="132.57" fill="#D9B8FF" font-family="Helvetica" font-size="17" textLength="210">kubernetes_ingress_class</text><path fill="none" d="M133 47.22v53.19" style="stroke:#1a83af;stroke-width:2"/><path fill="#1A83AF" d="m133 106.41 4-9-4 4-4-4z" style="stroke:#1a83af;stroke-width:2"/></svg>
